X: 10803
M: 2/4
L: 1/16
K: G
[|\
d2B2A2B2 | c2A2B2c2 | d2B2e2c2 | (c2B2)(B2A2) |\
d2B2A2B2 | c2A2B2c2 | d2ef gbgd | edcB B2A2 |\
dDBD ADBD | cDAD BDcD |
dDBD eDdD | cDBD BDAD |\
dDBD ADBD | cDAD BDcD | d2ef gbgd | edcB B2A2 |\
gfed cABc |\
defg agba | gfed dcBc | A2g2 gfba | gfef d4 |\
d2e2=f2d2 | B2^G2 A2AB | c2cd e2c2 | A2G2 ^FDD"^D.C."F |]



